X:5
T:The Torn Jacket (partie B)
R:reel
M:4/4
L:1/8
Q:2/4=90
K:Dmaj
%
% A
%|:F3A d2 ed|cAAB cdec|FEFA d2 ed|cAGE EDDE|
%FEFA d2 ed|cAAB cdec|dcde f2 ed|cAGE EDD2:|
% B
|: FAdf a2 ab|g2 gf gfed|cAA2 cdef|gfed cAGE|
| FAdf a2 ab|g2 gf gfef|gaba gfed|cAGE EDD2 :|
% B
|: FAdf a2 ab|g2 gf gfed|cAA2 cdef|gfed cAGE|
| FAdf a2 ab|g2 gf gfef|gaba gfed|cAGE EDD2 :|
% B
|: FAdf a2 ab|g2 gf gfed|cAA2 cdef|gfed cAGE|
| FAdf a2 ab|g2 gf gfef|gaba gfed|cAGE EDD2 :|
% B
|: FAdf a2 ab|g2 gf gfed|cAA2 cdef|gfed cAGE|
| FAdf a2 ab|g2 gf gfef|gaba gfed|cAGE EDD2 :|
% B
|: FAdf a2 ab|g2 gf gfed|cAA2 cdef|gfed cAGE|
| FAdf a2 ab|g2 gf gfef|gaba gfed|cAGE EDD2 :|
% B
|: FAdf a2 ab|g2 gf gfed|cAA2 cdef|gfed cAGE|
| FAdf a2 ab|g2 gf gfef|gaba gfed|cAGE EDD2 :|
% B
|: FAdf a2 ab|g2 gf gfed|cAA2 cdef|gfed cAGE|
| FAdf a2 ab|g2 gf gfef|gaba gfed|cAGE EDD2 :|
% B
|: FAdf a2 ab|g2 gf gfed|cAA2 cdef|gfed cAGE|
| FAdf a2 ab|g2 gf gfef|gaba gfed|cAGE EDD2 :|
% B
|: FAdf a2 ab|g2 gf gfed|cAA2 cdef|gfed cAGE|
| FAdf a2 ab|g2 gf gfef|gaba gfed|cAGE EDD2 :|

